icons/versions-24.svg

<svg xmlns="http://www.w3.org/2000/svg" width="24" height="24" viewBox="0 0 24 24"><path d="M10 22a2 2 0 01-2-2V4a2 2 0 012-2h11a2 2 0 012 2v16a2 2 0 01-2 2zm-.5-2a.5.5 0 00.5.5h11a.5.5 0 00.5-.5V4a.5.5 0 00-.5-.5H10a.5.5 0 00-.5.5zM6.17 4.165a.75.75 0 01-.335 1.006c-.228.114-.295.177-.315.201a.035.035 0 00-.008.016.423.423 0 00-.012.112v13c0 .07.008.102.012.112a.03.03 0 00.008.016c.02.024.087.087.315.201a.749.749 0 11-.67 1.342c-.272-.136-.58-.315-.81-.598C4.1 19.259 4 18.893 4 18.5v-13c0-.393.1-.759.355-1.073.23-.283.538-.462.81-.598a.75.75 0 011.006.336zM2.15 5.624a.75.75 0 01-.274 1.025c-.15.087-.257.17-.32.245C1.5 6.96 1.5 6.99 1.5 7v10c0 .01 0 .04.056.106.063.074.17.158.32.245a.75.75 0 01-.752 1.298C.73 18.421 0 17.907 0 17V7c0-.907.73-1.42 1.124-1.65a.75.75 0 011.025.274z"/></svg>

<svg xmlns="http://www.w3.org/2000/svg" width="24" height="24" viewBox="0 0 24 24">
  <defs/>
  <path d="M10,22 C8.895,22 8,21.105 8,20 L8,4 C8,2.895 8.895,2 10,2 L21,2 C22.105,2 23,2.895 23,4 L23,20 C23,21.105 22.105,22 21,22 Z M9.5,20 C9.5,20.276 9.724,20.5 10,20.5 L21,20.5 C21.276,20.5 21.5,20.276 21.5,20 L21.5,4 C21.5,3.724 21.276,3.5 21,3.5 L10,3.5 C9.724,3.5 9.5,3.724 9.5,4 Z M6.17,4.165 C6.355,4.535 6.205,4.986 5.835,5.171 C5.607,5.285 5.54,5.348 5.52,5.372 C5.516,5.377 5.513,5.382 5.512,5.388 C5.503,5.425 5.499,5.462 5.5,5.5 L5.5,18.5 C5.5,18.57 5.508,18.602 5.512,18.612 C5.513,18.618 5.516,18.624 5.52,18.628 C5.54,18.652 5.607,18.715 5.835,18.829 C6.077,18.947 6.237,19.186 6.254,19.455 C6.271,19.724 6.142,19.981 5.917,20.129 C5.692,20.277 5.405,20.293 5.165,20.171 C4.893,20.035 4.585,19.856 4.355,19.573 C4.1,19.259 4,18.893 4,18.5 L4,5.5 C4,5.107 4.1,4.741 4.355,4.427 C4.585,4.144 4.893,3.965 5.165,3.829 C5.536,3.644 5.986,3.794 6.171,4.165 Z M2.15,5.624 C2.358,5.983 2.235,6.442 1.876,6.649 C1.726,6.736 1.619,6.819 1.556,6.894 C1.5,6.96 1.5,6.99 1.5,7 L1.5,17 C1.5,17.01 1.5,17.04 1.556,17.106 C1.619,17.18 1.726,17.264 1.876,17.351 C2.234,17.559 2.357,18.018 2.149,18.376 C1.941,18.734 1.482,18.857 1.124,18.649 C0.73,18.421 0,17.907 0,17 L0,7 C0,6.093 0.73,5.58 1.124,5.35 C1.483,5.142 1.942,5.265 2.149,5.624 Z"/>
</svg>
